X: 231
T:Scotch Hornpipe,A. JaW.230
M:C|
L:1/8
Q:180
S:James Winder Ms, Lancashire, 1835-41
R:Hornpipe
O:England
A:Wyresdale,Lancashire
H:1/8
Z:vmp.Chris Partington, Aug 2004
K:G
(BA)|G2GA GABc|d2g2 dBAG|c2ce dBAG|FGAB A2(AB)|!
cBcd efge|dcBA G>FED|GBAc|BdAc|B2G2G2:|!
|:g2|dBGB dBge|dBGB A2AB|cBcd efge|f2d2d2(cB)|!
cBcd efge|dcBA G>FED|GBAc BdAc|B2G2G2:|]
